!!!COM: Haydn, Franz Joseph
!!!OPR: String Quartet in C Major
!!!ONM: Opus 50, No. 2
!!!OTL: Allegro 
!!!OMV: 1
!!!SCT: H III:45
!!!SCA: Thematisch-bibliographisches Werkevererzeichnis (A. van Hoboken)
!!!YOR: Trautwein Edition
!!!EED: Frances Bennion
!!!ENC: Frances Bennion
!!!CDT: 1732/3/31/-1809/5/31/
!!!OCY: Österreich
!!!YEC: Copyright (c) 1994, 2000 Center for Computer Assisted Research in the Humanities
!!!YEM: Rights to all derivative editions reserved.
!!!YEM: Refer to licensing agreement for further details.
!!!YEN: United States of America
**kern	**kern	**kern	**kern
*k[]	*k[]	*k[]	*k[]
*C:	*C:	*C:	*C:
*clefG	*clefG	*clefC3	*clefF4
*M3/4	*M3/4	*M3/4	*M3/4
*tb16	*tb16	*tb16	*tb16
=1	=1	=1	=1
[2.cc	4r	4r	4C
.	4g	4e	2r
.	4g	4e	.
=2	=2	=2	=2
4cc]	4g	4e	2.r
4b	2r	2r	.
4cc	.	.	.
=3	=3	=3	=3
4cc#	4r	4r	4C
[2dd	4a	4f	2r
.	4a	4f	.
=4	=4	=4	=4
4dd]	4a	4f	2.r
4cc#	2r	2r	.
4dd	.	.	.
=5	=5	=5	=5
2.ff	4r	4r	[2.C
.	4b-	4g	.
.	4b-	4g	.
=6	=6	=6	=6
4ee	2.b-	2.g	2.C]
4dd	.	.	.
4ee	.	.	.
=7	=7	=7	=7
2aa	2.a	2.f	2.FF
16gg	.	.	.
16ff	.	.	.
16ee	.	.	.
16dd	.	.	.
=8	=8	=8	=8
2cc	2g	2e	2.GG
4dd	4f	4B	.
=9	=9	=9	=9
4cc	4e	4c	4C
2r	2r	2r	2r
=10	=10	=10	=10
2.g	2.g	2.G	2.GG
=11	=11	=11	=11
4e	4e	4E	4EE
2r	2r	2r	2r
=12	=12	=12	=12
2cc	2.f#	2.A	2.DD
16b	.	.	.
16a	.	.	.
16g	.	.	.
16f#	.	.	.
=13	=13	=13	=13
4.g	8g	4B	4GG
.	8r	.	.
.	8d	2r	2r
16a	8r	.	.
16b	.	.	.
16cc	8B	.	.
16dd	.	.	.
16ee	8r	.	.
16ff#	.	.	.
=14	=14	=14	=14
4.gg	4G	4d 4B	8G
.	.	.	8r
.	2r	2r	8D
16aa	.	.	8r
16bb	.	.	.
16ccc	.	.	8BB
16ddd	.	.	.
16eee	.	.	8r
16fff#	.	.	.
=15	=15	=15	=15
8ggg	4b 4d	4d 4B	4.GG
8r	.	.	.
8ddd	2r	2r	.
8r	.	.	16AA
.	.	.	16BB
8bb	.	.	16C
.	.	.	16D
8r	.	.	16E
.	.	.	16F#
=16	=16	=16	=16
8gg	4b 4d	4G	4.G
8r	.	.	.
8dd	2r	2r	.
8r	.	.	16A
.	.	.	16B
8b	.	.	16c
.	.	.	16d
8r	.	.	16e
.	.	.	16f#
=17	=17	=17	=17
8G 8g	8B 8d	8G	8g
8r	8r	8r	8r
8G 8g	8d 8B	8G	8d
8r	8r	8r	8r
8G 8g	8d 8B	8G	8B
8r	8r	8r	8r
=18	=18	=18	=18
4G 4g	4d 4B	4G	4G
2r	2r	2r	2r
=19	=19	=19	=19
8f	8g	8d	8B
8r	8r	8r	8r
8f	8g	8d	8B
8r	8r	8r	8r
8f	8g	8d	8B
8r	8r	8r	8r
=20	=20	=20	=20
4f	4g	4d	4B
2r	2r	2r	2r
=21	=21	=21	=21
[2.cc	4r	4r	2.r
.	4g	4e	.
.	4g	4e	.
=22	=22	=22	=22
4cc]	4f	4d	2.r
4b	2r	2r	.
4cc	.	.	.
=23	=23	=23	=23
4cc#	4r	4r	2.r
[2dd	4a	4f	.
.	4a	4f	.
=24	=24	=24	=24
4dd]	4g	4e	2.r
4cc#	2r	2r	.
4dd	.	.	.
=25	=25	=25	=25
2.ff	4r	4r	4r
.	4b-	4g	4c#
.	4b-	4g	4c#
=26	=26	=26	=26
4ee	2.b-	2.g	2.c#
4dd	.	.	.
4ee	.	.	.
=27	=27	=27	=27
4.ff	2.a	2.f	2d
16gg	.	.	.
16aa	.	.	.
16gg	.	.	4F
16ff	.	.	.
16ee	.	.	.
16dd	.	.	.
=28	=28	=28	=28
2cc	2g	2e	2.G
4dd	4f	4B	.
=29	=29	=29	=29
4cc	4e	4c	4C
2r	2r	2r	2r
=30	=30	=30	=30
2.g	2.g	2.G	2.GG
=31	=31	=31	=31
4e	4e	4E	4EE
2r	2r	2r	2r
=32	=32	=32	=32
2cc	2.f#	2.A	2.DD
16b	.	.	.
16a	.	.	.
16g	.	.	.
16f#	.	.	.
=33	=33	=33	=33
4.g	8g	8B	4GG
.	8r	8r	.
.	8d	8b	2r
16a	8r	4.r	.
16b	.	.	.
16cc	8B	.	.
16dd	.	.	.
16ee	8r	.	.
16ff#	.	.	.
=34	=34	=34	=34
2gg	2c#	2g	2EE
16ff#	4cc#	4a	4E
16ee	.	.	.
16dd	.	.	.
16cc#	.	.	.
=35	=35	=35	=35
4dd	4dd	4f#	4.D
2r	4dd	4r	.
.	.	.	16E
.	.	.	16F#
.	4dd	4b	16G
.	.	.	16A
.	.	.	16B
.	.	.	16c#
=36	=36	=36	=36
4.dd	4dd	4b	4d
.	4ee	4cc	2r
16ee	.	.	.
16ff#	.	.	.
16gg	4dd	4b	.
16aa	.	.	.
16bb	.	.	.
16ccc#	.	.	.
=37	=37	=37	=37
4ddd	4r	4r	4.D
2r	4cc	4a	.
.	.	.	16E
.	.	.	16F#
.	4cc	4a	16G
.	.	.	16A
.	.	.	16B
.	.	.	16c#
=38	=38	=38	=38
4.dd	4cc	4a	4d
.	4dd	4b	2r
16ee	.	.	.
16ff#	.	.	.
16gg	4cc	4a	.
16aa	.	.	.
16bb	.	.	.
16ccc#	.	.	.
=39	=39	=39	=39
4ddd	4r	4r	4.D
2r	4b	4g	.
.	.	.	16E
.	.	.	16F#
.	4b	4g	16G
.	.	.	16A
.	.	.	16B
.	.	.	16c#
=40	=40	=40	=40
4.dd	4b	4g	4d
.	4cc	4a	2r
16ee	.	.	.
16ff#	.	.	.
16gg	4b	4g	.
16aa	.	.	.
16bb	.	.	.
16ccc#	.	.	.
=41	=41	=41	=41
4ddd	4a	4f#	4.D
2r	4a	4f#	.
.	.	.	16E
.	.	.	16F#
.	4a	4f#	16G
.	.	.	16A
.	.	.	16B
.	.	.	16c#
=42	=42	=42	=42
2.r	4a	4f#	8d
.	.	.	8c#
.	2r	2r	8d
.	.	.	8B
.	.	.	8c
.	.	.	8A
=43	=43	=43	=43
4r	8b	8g	4G
.	8dd	8b	.
4ddd	8b	8g	2r
.	8dd	8b	.
4ddd	8b	8g	.
.	8dd	8b	.
=44	=44	=44	=44
2ff#	8cc	8a	4D
.	8dd	8cc	.
.	8cc	8a	2r
.	8dd	8cc	.
8aa	8cc	8a	.
16gg	8dd	8cc	.
16aa	.	.	.
=45	=45	=45	=45
4gg	8b	8g	4G
.	8dd	8b	.
4dd	8b	8g	2r
.	8dd	8b	.
8bb	8b	8g	.
16aa	8dd	8b	.
16bb	.	.	.
=46	=46	=46	=46
4aa	8cc	8d	4D
.	8dd	8f#	.
4dd	8cc	8d	2r
.	8dd	8f#	.
8ccc	8a	8d	.
16bb	8dd	8f#	.
16ccc	.	.	.
=47	=47	=47	=47
4bb	8b	8g	4G
.	8dd	8b	.
4ddd	8b	8g	2r
.	8dd	8b	.
4ddd	8b	8g	.
.	8dd	8b	.
=48	=48	=48	=48
4ddd	8cc	8f#	4D
.	8dd	8a	.
4ff#	8cc	8a	2r
.	8dd	8cc	.
8aa	8cc	8a	.
16gg	8dd	8cc	.
16aa	.	.	.
=49	=49	=49	=49
4gg	8b	8g	4G
.	8dd	8b	.
4dd	8b	8g	2r
.	8dd	8b	.
8bb	8b	8g	.
16aa	8dd	8b	.
16bb	.	.	.
=50	=50	=50	=50
4aa	8cc	8d	4D
.	8dd	8f#	.
4dd	8cc	8d	2r
.	8dd	8f#	.
8ccc	8a	8d	.
16bb	8dd	8f#	.
16ccc	.	.	.
=51	=51	=51	=51
4bb	8b	4g	4G
.	8dd	.	.
4gg	4b	4r	4r
4eee	4b	4g	4G
=52	=52	=52	=52
2ddd	[2.a	2f#	2A
4ccc#	.	4e	4G
=53	=53	=53	=53
8.ddd	4a]	4d	4F#
16eee	.	.	.
8.fff#	2r	2r	2r
16ggg	.	.	.
8.aaa	.	.	.
16bbb	.	.	.
=54	=54	=54	=54
4cccc	2.r	2.r	2.r
2r	.	.	.
=55	=55	=55	=55
2.cc	4f#	4a	8.D
.	.	.	16E
.	4a	4d	8.F#
.	.	.	16G
.	[4d	4f#	8.A
.	.	.	16F#
=56	=56	=56	=56
4b	4d]	4g	4G
4a	4e	4e	4C
4ee	4a	4c	4C
=57	=57	=57	=57
2g	2g	2B	2.D
4a	4f#	4c	.
=58	=58	=58	=58
4gg	4r	2.r	4r
4dd	4g	.	4B
4dd	4g	.	4B
=59	=59	=59	=59
4gg	4r	2.r	4r
4dd#	4g	.	4B
4dd#	4g	.	4B
=60	=60	=60	=60
2.dd#	[2.g	2.r	[2.c
=61	=61	=61	=61
4ee	4g]	2.r	4c]
8dd	2r	.	2r
8cc	.	.	.
8b	.	.	.
8a	.	.	.
=62	=62	=62	=62
2g	2B	2d	2.D
4a	4c	4f#	.
=63	=63	=63	=63
4gg	4r	2.r	4r
4dd	4g	.	4B
4dd	4g	.	4B
=64	=64	=64	=64
4gg	4r	2.r	4r
4ee-	4g	.	4B
4ee-	4g	.	4B
=65	=65	=65	=65
[2.ee-	2.g	2.r	[2.c
=66	=66	=66	=66
4ee-]	[2.a-	2.e-	2.c]
4ee-	.	.	.
4ee-	.	.	.
=67	=67	=67	=67
2.ee-	4a-]	4f	2.B-
.	4a-	4f	.
.	4a-	4f	.
=68	=68	=68	=68
4dd-	2.b-	2g	2.E-
4cc	.	.	.
4dd-	.	[4b-	.
=69	=69	=69	=69
4dd-	2.e-	4b-]	2.A-
4cc	.	4a-	.
4cc	.	4a-	.
=70	=70	=70	=70
4r	2.B-	2.G	2.E
4cc	.	.	.
4cc	.	.	.
=71	=71	=71	=71
4cc	2.A-	2.A-	2.F
4dd-	.	.	.
4cc	.	.	.
=72	=72	=72	=72
4r	2.e	2.B-	2.G
4cc	.	.	.
4cc	.	.	.
=73	=73	=73	=73
4cc	2.f	2.c	2.A-
4dd-	.	.	.
4cc	.	.	.
=74	=74	=74	=74
4r	2.B-	2.G	2.E
4cc	.	.	.
4cc	.	.	.
=75	=75	=75	=75
4cc	2.A-	2.A-	2.F
4dd-	.	.	.
4cc	.	.	.
=76	=76	=76	=76
4r	2.c	2.G	2.E-
4cc	.	.	.
4cc	.	.	.
=77	=77	=77	=77
4cc	2.f#	2.A	[2.D
4dd	.	.	.
4cc	.	.	.
=78	=78	=78	=78
4b-	4g	4G	2.D_
4a	4f#	4A	.
4b-	4g	4G	.
=79	=79	=79	=79
4a	4f#	4d	4D]
4dd	4a	4f#	2r
4dd	4a	4f#	.
=80	=80	=80	=80
2dd	4b-	4g	2.r
.	4cc	4a	.
4cc#	4b-	4g	.
=81	=81	=81	=81
2dd	4a	4f#	4r
.	4f#	4r	4DD
4ff#	4cc	4d	4DD
=82	=82	=82	=82
2gg	4b-	2c#	4EE-
.	4r	.	4DD
4cc#	4g	4G	4EE-
=83	=83	=83	=83
4dd	4f#	4A	4DD
2r	4dd	2r	2r
.	4dd	.	.
=84	=84	=84	=84
2.r	8dd	2.r	2.r
.	8cc#	.	.
.	8dd	.	.
.	8b	.	.
.	8cc	.	.
.	8a	.	.
=85	=85	=85	=85
4r	[2.g	4r	4r
4gg	.	4d	4B
4gg	.	4d	4B
=86	=86	=86	=86
[2.gg	4g]	4d	4B
.	4f#	4c	4A
.	4g	4d	4B
=87	=87	=87	=87
2.gg_	4g#	2.e	2.c
.	2a	.	.
=88	=88	=88	=88
2.gg_	4b	4f	4d
.	4a#	4e	4c#
.	4b	4f	4d
=89	=89	=89	=89
2.gg_	2dd	2.g	2.e
.	4cc	.	.
=90	=90	=90	=90
2.gg_	4ff	4dd	2.B
.	4ee	4cc#	.
.	4ff	4dd	.
=91	=91	=91	=91
4gg]	4ee	4cc	2.c
4ee	4cc	4r	.
4cc	4a	4e	.
=92	=92	=92	=92
4b	4g	4d	2d
4cc	4a	4r	.
4a	4f#	4c	4D
=93	=93	=93	=93
8g	[2.g	[2.d	[2.BB
16a	.	.	.
16b	.	.	.
16cc	.	.	.
16dd	.	.	.
16ee	.	.	.
16ff#	.	.	.
16gg	.	.	.
16aa	.	.	.
16bb	.	.	.
16ccc	.	.	.
=94	=94	=94	=94
8ddd	4g]	4d]	4BB]
8bb	.	.	.
8gg	4g	4d	4BB
8dd	.	.	.
8b	4g	4d	4BB
8g	.	.	.
=95	=95	=95	=95
4e	4g	4e	4C
4eee	2r	2r	2r
4r	.	.	.
=96	=96	=96	=96
8r	4c	2.r	2.r
8ddd#	.	.	.
8eee	2r	.	.
8ccc#	.	.	.
8ddd	.	.	.
8bb	.	.	.
=97	=97	=97	=97
8ccc	2.r	2.r	2.r
8gg#	.	.	.
8aa	.	.	.
8bb	.	.	.
8ccc	.	.	.
8aa	.	.	.
=98	=98	=98	=98
[2.aa	4r	[2.f#	4D
.	4cc	.	4D
.	4cc	.	4D
=99	=99	=99	=99
2.aa]	4cc	2.f#]	4DD
.	4b	.	4DD
.	4cc	.	4DD
=100	=100	=100	=100
4gg	4b	4g	8GG
.	.	.	8BB
2r	2r	2r	8D
.	.	.	8G
.	.	.	8B
.	.	.	8d
=101	=101	=101	=101
2.dd	2.c	2F#	8D
.	.	.	8F#
.	.	.	8A
.	.	.	8c
.	.	4A	8d
.	.	.	8f#
=102	=102	=102	=102
4b	4B	8G	4g
.	.	8B	.
2r	2r	8d	2r
.	.	8g	.
.	.	8b	.
.	.	8dd	.
=103	=103	=103	=103
2.ccc	2.a	8d	2.r
.	.	8f#	.
.	.	8a	.
.	.	8cc	.
.	.	8dd	.
.	.	8ff#	.
=104	=104	=104	=104
4bb	8g	4gg	2.r
.	8b	.	.
2r	8dd	2r	.
.	8gg	.	.
.	8bb	.	.
.	8ddd	.	.
=105	=105	=105	=105
2.fff#	8ccc	2.a	2.D
.	8aa	.	.
.	8ff#	.	.
.	8dd	.	.
.	8cc	.	.
.	8a	.	.
=106	=106	=106	=106
4ggg	4g	4b	4GG
2r	2r	2r	2r
=107	=107	=107	=107
2.r	4r	[2.g	2.r
.	4b	.	.
.	4g	.	.
=108	=108	=108	=108
2.r	4a	4g]	2.r
.	[2dd	4f#	.
.	.	4g	.
=109	=109	=109	=109
2.r	4dd]	4g#	2.r
.	4cc	[2a	.
.	4a	.	.
=110	=110	=110	=110
2.r	4b	4a]	2.r
.	4ee	4g#	.
.	4cc	4a	.
=111	=111	=111	=111
2.r	4a	2.cc	2.r
.	4dd	.	.
.	4f#	.	.
=112	=112	=112	=112
2.r	4g	4b	2.r
.	4b	4g	.
.	[4dd	4f	.
=113	=113	=113	=113
4r	4dd]	4e	[2.c
4ee	4cc	4g	.
4cc	4r	4g	.
=114	=114	=114	=114
4dd	4r	4g	4c]
[2gg	4g	2r	4B
.	4a	.	4c
=115	=115	=115	=115
4gg]	4b-	2.r	4c#
4ff	4a	.	[2d
4dd	4a	.	.
=116	=116	=116	=116
4ee	[2.a	4r	4d]
4aa	.	4e	4c#
4gg	.	4c#	4e
=117	=117	=117	=117
[2.ff	4a]	[2.d	4d
.	2r	.	4B-
.	.	.	4G#
=118	=118	=118	=118
4ff]	2.r	4d]	[2.A
4ee	.	4c#	.
4ff	.	4d	.
=119	=119	=119	=119
4ff#	2.r	4d#	4A]
2gg	.	2e	4E
.	.	.	4C#
=120	=120	=120	=120
4ff	[2.f	4f	2D
4f	.	4A	.
4f	.	4A	4D
=121	=121	=121	=121
4f	4f]	4B-	4D
2r	4e	2r	2r
.	4f	.	.
=122	=122	=122	=122
4r	4f#	4r	2C
4e	[2g	4B-	.
4e	.	4B-	4r
=123	=123	=123	=123
4e	4g]	4B-	2.r
2r	4f#	2r	.
.	4g	.	.
=124	=124	=124	=124
4r	2.b-	4r	2.FF
4e-	.	4c	.
4e-	.	4c	.
=125	=125	=125	=125
4e-	4a	2.c	2.FF#
2r	4g	.	.
.	4a	.	.
=126	=126	=126	=126
[2.gg	4b-	4B-	8GG
.	.	.	8BB-
.	2r	4B-	8D
.	.	.	8G
.	.	4r	8B-
.	.	.	8d
=127	=127	=127	=127
4gg]	2.r	2.r	4g
4ff#	.	.	2r
4gg	.	.	.
=128	=128	=128	=128
4gg#	2.r	8cc	2.r
.	.	8a	.
[2aa	.	8f#	.
.	.	8d	.
.	.	8A	.
.	.	8F#	.
=129	=129	=129	=129
4aa]	2.r	4D	2.r
4gg#	.	2r	.
4aa	.	.	.
=130	=130	=130	=130
2.ccc	8G	2.r	2.r
.	8d	.	.
.	8f	.	.
.	8g	.	.
.	8b	.	.
.	8dd	.	.
=131	=131	=131	=131
4bb	4ff	2.r	2.r
4aa	2r	.	.
4bb	.	.	.
=132	=132	=132	=132
[2.ccc	4r	4r	2.r
.	4gg	4ee	.
.	4gg	4ee	.
=133	=133	=133	=133
4ccc]	4ff	4dd	2.r
4ddd	2r	2r	.
4ccc	.	.	.
=134	=134	=134	=134
4bb	4r	4r	2.r
[2bb-	4ff	4dd	.
.	4ff	4dd	.
=135	=135	=135	=135
4bb-]	4ee	4cc	2.r
4ccc	2r	2r	.
4bb-	.	.	.
=136	=136	=136	=136
2.gg#	4r	[2.f	2.r
.	4cc	.	.
.	4cc	.	.
=137	=137	=137	=137
4aa	[2.cc	4f]	2.r
4bb-	.	4g	.
4aa	.	4f	.
=138	=138	=138	=138
4gg	2.cc]	4e	2.r
4ccc	.	[2e-	.
4aa	.	.	.
=139	=139	=139	=139
[2.ff	2.a	4e-]	2.r
.	.	4f	.
.	.	4e-	.
=140	=140	=140	=140
4ff]	[2.b-	2.d	[2.G
4gg	.	.	.
4ff	.	.	.
=141	=141	=141	=141
[2.ee	4b-]	[2.c	4G]
.	4cc	.	4A
.	4b-	.	4G
=142	=142	=142	=142
4ee]	2.a	4c]	4F#
4dd	.	4d	[2F
4cc	.	4d	.
=143	=143	=143	=143
2.b	2.g	2.d	4F]
.	.	.	4G
.	.	.	4F
=144	=144	=144	=144
4b-	[2.gg	4c	4E
4b-	.	4c	4E
4b-	.	4c	4E
=145	=145	=145	=145
4a	4gg]	4c	4F
2r	4ff	2r	2r
.	4gg	.	.
=146	=146	=146	=146
4r	4gg#	4r	4r
4cc	[2aa	4e-	4F#
4cc	.	4e-	4F#
=147	=147	=147	=147
4b	4aa]	4d	4G
2r	4gg	2r	2r
.	4aa	.	.
=148	=148	=148	=148
4r	4aa#	4r	4r
4dd	[2bb	4f	4G#
4dd	.	4f	4G#
=149	=149	=149	=149
2cc	4bb]	4e	4A
.	4aa	4r	2r
4ee	[4ccc	4A	.
=150	=150	=150	=150
2.dd#	4ccc]	4a	2.F
.	4bb	4b	.
.	4aa	8cc	.
.	.	8a	.
=151	=151	=151	=151
4ee	4gg#	4e	4.E
2r	4ee	4r	.
.	.	.	16F#
.	.	.	16G#
.	4ee	4cc	16A
.	.	.	16B
.	.	.	16c
.	.	.	16d
=152	=152	=152	=152
4.ee	4ee	4cc	4e
.	4ff	4dd	2r
16ff#	.	.	.
16gg#	.	.	.
16aa	4ee	4cc	.
16bb	.	.	.
16ccc	.	.	.
16ddd	.	.	.
=153	=153	=153	=153
4eee	4r	4r	4.E
2r	4dd	4b	.
.	.	.	16F#
.	.	.	16G#
.	4dd	4b	16A
.	.	.	16B
.	.	.	16c
.	.	.	16d
=154	=154	=154	=154
4.ee	4dd	4b	4e
.	4ee	4cc	2r
16ff#	.	.	.
16gg#	.	.	.
16aa	4dd	4b	.
16bb	.	.	.
16ccc	.	.	.
16ddd	.	.	.
=155	=155	=155	=155
4eee	4r	4r	4.E
2r	4cc	4a	.
.	.	.	16F#
.	.	.	16G#
.	4cc	4a	16A
.	.	.	16B
.	.	.	16c
.	.	.	16d
=156	=156	=156	=156
4.ee	4cc	4a	4e
.	4dd	4b	2r
16ff#	.	.	.
16gg#	.	.	.
16aa	4cc	4a	.
16bb	.	.	.
16ccc	.	.	.
16ddd	.	.	.
=157	=157	=157	=157
4eee	4b	4g#	4.E
2r	4b	4g#	.
.	.	.	16F#
.	.	.	16G#
.	4b	4g#	16A
.	.	.	16B
.	.	.	16c
.	.	.	16d
=158	=158	=158	=158
2.r	4b	4g#	8e
.	.	.	8f
.	2r	2r	8e
.	.	.	8d
.	.	.	8c
.	.	.	8B
=159	=159	=159	=159
2.r	4r	8c	8A
.	.	8e	8c
.	4ee	8c	8A
.	.	8e	8c
.	4ee	8c	8A
.	.	8e	8c
=160	=160	=160	=160
2.r	2g#	8d	8B
.	.	8e	8d
.	.	8d	8B
.	.	8e	8d
.	8b	8B	8E
.	16a	8e	8G#
.	16b	.	.
=161	=161	=161	=161
2.r	4a	8c	8A
.	.	8e	8c
.	4e	8c	8A
.	.	8e	8c
.	8cc	8c	8A
.	16b	8e	8c
.	16cc	.	.
=162	=162	=162	=162
2.r	4b	8d	8G#
.	.	8e	8E
.	4e	8d	8G#
.	.	8e	8E
.	8dd	8B	8G#
.	16cc	8e	8E
.	16dd	.	.
=163	=163	=163	=163
4r	8cc	8c	4A
.	8a	8e	.
4ccc	8c	8A	2r
.	8e	8c	.
4ccc	8c	8A	.
.	8e	8c	.
=164	=164	=164	=164
2ee	8B-	8G	2.C
.	8c	8B-	.
.	8B-	8G	.
.	8c	8B-	.
8gg	8B-	8G	.
16ff	8c	8B-	.
16gg	.	.	.
=165	=165	=165	=165
4ff	8A	8F	4FF
.	8c	8A	.
4cc	8A	8F	2r
.	8c	8A	.
8aa	8A	8F	.
16gg	8c	8A	.
16aa	.	.	.
=166	=166	=166	=166
4gg	8B-	8E	4C
.	8c	8C	.
4cc	8B-	8E	2r
.	8c	8C	.
8bb-	8G	8E	.
16aa	8c	8C	.
16bb-	.	.	.
=167	=167	=167	=167
4aa	4A	4F	4F
2r	4a	4f	2r
.	4a	4f	.
=168	=168	=168	=168
4r	2e	2c#	2.r
4aa	.	.	.
4aa	8g	8e	.
.	16f	16d	.
.	16g	16e	.
=169	=169	=169	=169
8aa	4f	4d	4r
8ccc#	.	.	.
8ddd	4d	4a	4f
8ccc#	.	.	.
8ddd	4r	4a	4f
8eee	.	.	.
=170	=170	=170	=170
4fff	2.r	2d	2B
4ddd	.	.	.
4bb	.	8f	8d
.	.	16e	16c
.	.	16f	16d
=171	=171	=171	=171
4ccc	2.r	4e	4c
8ccc	.	4e	4c
8bb	.	.	.
8ccc	.	4e	4c
8ddd	.	.	.
=172	=172	=172	=172
8eee	2.r	2A	2F#
8ccc	.	.	.
8bb	.	.	.
8aa	.	.	.
8gg	.	8c	8A
8ff#	.	16B	16G
.	.	16c	16A
=173	=173	=173	=173
4gg	2g	8B	8G
.	.	8c	8A
4gg	.	8d	8B
.	.	8c	8A
4gg	8g	8d	8B
.	8a	8e	8c
=174	=174	=174	=174
4gg	4b	4f	4d
4gg	4b	4f	4d
4gg	4b	4f	4d
=175	=175	=175	=175
4gg	4b	4f	4d
2r	2r	2r	2r
=176	=176	=176	=176
[2.cc	4r	4r	4C
.	4g	4e	2r
.	4g	4e	.
=177	=177	=177	=177
4cc]	4g	4e	2.r
4b	2r	2r	.
4cc	.	.	.
=178	=178	=178	=178
4cc#	4r	4r	4C
[2dd	4a	4f	2r
.	4a	4f	.
=179	=179	=179	=179
4dd]	4a	4f	2.r
4cc#	2r	2r	.
4dd	.	.	.
=180	=180	=180	=180
2.ff	4r	4r	[2.C
.	4b-	4g	.
.	4b-	4g	.
=181	=181	=181	=181
4ee	2.b-	2.g	2.C]
4dd	.	.	.
4ee	.	.	.
=182	=182	=182	=182
2aa	2.a	2.f	2.FF
16gg	.	.	.
16ff	.	.	.
16ee	.	.	.
16dd	.	.	.
=183	=183	=183	=183
2cc	2g	2e	2.GG
4dd	4f	4B	.
=184	=184	=184	=184
4cc	4e	4c	4C
2r	2r	2r	2r
=185	=185	=185	=185
2.g	2.g	2.G	2.GG
=186	=186	=186	=186
4e	4e	4E	4EE
2r	2r	2r	2r
=187	=187	=187	=187
2cc	2.f#	2.A	2.DD
16b	.	.	.
16a	.	.	.
16g	.	.	.
16f#	.	.	.
=188	=188	=188	=188
4.g	8g	4B	4GG
.	8r	.	.
.	8d	2r	2r
16a	8r	.	.
16b	.	.	.
16cc	8B	.	.
16dd	.	.	.
16ee	8r	.	.
16ff#	.	.	.
=189	=189	=189	=189
4.gg	4G	4B 4d	8G
.	.	.	8r
.	2r	2r	8D
16aa	.	.	8r
16bb	.	.	.
16ccc	.	.	8BB
16ddd	.	.	.
16eee	.	.	8r
16fff#	.	.	.
=190	=190	=190	=190
4ggg	4b 4d	4d 4B	4.GG
8ddd	2r	2r	.
8r	.	.	16AA
.	.	.	16BB
8bb	.	.	16C
.	.	.	16D
8r	.	.	16E
.	.	.	16F#
=191	=191	=191	=191
8gg	4b 4d	4G	4.G
8r	.	.	.
8dd	2r	2r	.
8r	.	.	16A
.	.	.	16B
8b	.	.	16c
.	.	.	16d
8r	.	.	16e
.	.	.	16f#
=192	=192	=192	=192
8g 8G	8d 8B	8G	8g
8r	8r	8r	8r
8g 8G	8d 8B	8G	8d
8r	8r	8r	8r
8g 8G	8d 8B	8G	8B
8r	8r	8r	8r
=193	=193	=193	=193
4G 4g	4d 4B	4G	4G
2r	2r	2r	2r
=194	=194	=194	=194
8f	8g	8d	8B
8r	8r	8r	8r
8f	8g	8d	8B
8r	8r	8r	8r
8f	8g	8d	8B
8r	8r	8r	8r
=195	=195	=195	=195
4f	4g	4d	4B
2r	2r	2r	2r
=196	=196	=196	=196
2.r	2.r	2.r	[2.C
=197	=197	=197	=197
2.r	2.r	[2.G	4C]
.	.	.	4BB
.	.	.	4C
=198	=198	=198	=198
2.r	2.r	4G]	4C#
.	.	4F#	[2D
.	.	4G	.
=199	=199	=199	=199
2.r	2.r	4G#	4D]
.	.	[2A	4C#
.	.	.	4D
=200	=200	=200	=200
2.r	2.r	4A]	[2.F
.	.	4G#	.
.	.	4A	.
=201	=201	=201	=201
2.r	2.r	[2.c	4F]
.	.	.	4E
.	.	.	4F#
=202	=202	=202	=202
2.r	2.r	4c]	2G
.	.	4B	.
.	.	[4d	4F
=203	=203	=203	=203
[2.gg	2.r	4d]	2E
.	.	4c	.
.	.	4f	4D
=204	=204	=204	=204
4gg]	[2.cc	4e	4C
4aa	.	2r	2r
4gg	.	.	.
=205	=205	=205	=205
4ff#	4cc]	2.r	2.r
[2ff	4dd	.	.
.	4cc	.	.
=206	=206	=206	=206
4ff]	4b	2.r	2.r
4gg	[2b-	.	.
4ff	.	.	.
=207	=207	=207	=207
2.ee	4b-]	[2.c	2.r
.	4cc	.	.
.	4b-	.	.
=208	=208	=208	=208
4ff	4a	4c]	[2.F
2r	4b-	4d	.
.	4a	4c	.
=209	=209	=209	=209
2.r	2.g	4B	4F]
.	.	[2B-	4G
.	.	.	4F
=210	=210	=210	=210
[2.gg	2c	4B-]	4E
.	.	4c	2E-
.	4r	4G	.
=211	=211	=211	=211
4gg]	[2.cc	4A	2D
4ff#	.	4a	.
4gg	.	4g	4E
=212	=212	=212	=212
4gg#	4cc]	4f#	2.F#
[2aa	4b	4d	.
.	4cc	4d	.
=213	=213	=213	=213
4aa]	4b	2d	[2.G
4gg	4b	.	.
4aa	4cc	4r	.
=214	=214	=214	=214
4aa#	4cc#	4r	4G]
2bb	2dd	4d 4f	4GG 4G
.	.	4f 4d	4G 4GG
=215	=215	=215	=215
4ddd	4ff	4r	4r
2ccc	2ee	4e 4c	4G 4GG
.	.	4e 4c	4G 4GG
=216	=216	=216	=216
4aa	4cc	4r	4r
2ff#	2a	4e- 4c	4GG 4G
.	.	4e- 4c	4GG 4G
=217	=217	=217	=217
4aa	4cc	4r	4r
2gg	2b	4d 4B	4GG 4G
.	.	4d 4B	4G 4GG
=218	=218	=218	=218
4dd	4b	2.r	2.r
4dd	4b	.	.
4ee	4cc#	.	.
=219	=219	=219	=219
2gg	2ee	2.r	2.r
4ff	4dd	.	.
=220	=220	=220	=220
2.r	2.r	4d	4B
.	.	4d	4B
.	.	4e	4c#
=221	=221	=221	=221
2.r	2.r	2g	2e
.	.	4f	4d
=222	=222	=222	=222
4dd	4b	2.r	2.r
4dd	4b	.	.
4ee	4cc#	.	.
=223	=223	=223	=223
2.gg	2.ee	2.r	2.r
=224	=224	=224	=224
2.ff	2.dd	2.B	2.G
=225	=225	=225	=225
4r	8e	8c	4c
.	8g	8e	.
4gg	8e	8c	2r
.	8g	8e	.
4gg	8e	8c	.
.	8g	8e	.
=226	=226	=226	=226
2b	8f	8d	4G
.	8g	8f	.
.	8f	8d	2r
.	8g	8f	.
8dd	8f	8d	.
16cc	8g	8f	.
16dd	.	.	.
=227	=227	=227	=227
4cc	8e	8c	4C
.	8g	8e	.
4g	8e	8c	2r
.	8g	8e	.
8ee	8e	8c	.
16dd	8g	8e	.
16ee	.	.	.
=228	=228	=228	=228
4dd	8f	8G	4GG
.	8g	8B	.
4g	8f	8G	2r
.	8g	8B	.
8ff	8d	8G	.
16ee	8g	8B	.
16ff	.	.	.
=229	=229	=229	=229
8ee	8e	8c	4C
8ff	8g	8e	.
8ff#	8e	8c	2r
8gg	8g	8e	.
8aa	8e	8c	.
8gg	8g	8e	.
=230	=230	=230	=230
4gg	8f	8d	4GG
.	8g	8f	.
4b	8f	8d	2r
.	8g	8f	.
8dd	8f	8d	.
16cc	8g	8f	.
16dd	.	.	.
=231	=231	=231	=231
4cc	8e	8c	4C
.	8g	8e	.
4g	8e	8c	2r
.	8g	8e	.
8ee	8e	8c	.
16dd	8g	8e	.
16ee	.	.	.
=232	=232	=232	=232
4dd	8f	8G	4G
.	8g	8B	.
4g	8f	8G	2r
.	8g	8B	.
8ff	8d	8G	.
16ee	8g	8B	.
16ff	.	.	.
=233	=233	=233	=233
4ee	8e	4c	4C
.	8g	.	.
4cc	4e	4r	4r
4aa	4e	4c	4C
=234	=234	=234	=234
2gg	[2.d	2B	2D
4ff#	.	4A	4C
=235	=235	=235	=235
8.gg	4d]	4G	4BB
16aa	.	.	.
8.bb	2r	2r	2r
16ccc	.	.	.
8.ddd	.	.	.
16eee	.	.	.
=236	=236	=236	=236
4fff	2.r	2.r	2.r
2r	.	.	.
=237	=237	=237	=237
2.ff	4b	4d	8.G
.	.	.	16A
.	4dd	4G	8.B
.	.	.	16c
.	[4g	4B	8.d
.	.	.	16B
=238	=238	=238	=238
4ee	4g]	4c	4c
4dd	4a	4a	4F
4aa	4dd	4f	4F
=239	=239	=239	=239
2cc	2cc	2e	2.G
4dd	4b	4f	.
=240	=240	=240	=240
4ccc	4r	4r	2.r
4gg	4cc	4e	.
4gg	4cc	4e	.
=241	=241	=241	=241
4ccc	4r	4r	2.r
4gg#	4cc	4e	.
4gg#	4cc	4e	.
=242	=242	=242	=242
2.gg#	[2.cc	[2.f	2.r
=243	=243	=243	=243
4aa	4cc]	4f]	2.r
8gg	2r	2r	.
8ff	.	.	.
8ee	.	.	.
8dd	.	.	.
=244	=244	=244	=244
2cc	2e	2G	2.G
4dd	4f	4B	.
=245	=245	=245	=245
4ccc	4r	2.r	4r
4gg	4cc	.	4e
4gg	4cc	.	4e
=246	=246	=246	=246
4ccc	4r	2.r	4r
4aa-	4cc	.	4e
4aa-	4cc	.	4e
=247	=247	=247	=247
[2.aa-	2.cc	2.r	[2.f
=248	=248	=248	=248
4aa-]	[2.dd-	2.a-	2.f]
4aa-	.	.	.
4aa-	.	.	.
=249	=249	=249	=249
2.aa-	4dd-]	4b-	2.e-
.	4dd-	4b-	.
.	4dd-	4b-	.
=250	=250	=250	=250
4gg-	2.ee-	2cc	2.A-
4ff	.	.	.
4gg-	.	[4e-	.
=251	=251	=251	=251
4gg-	2.a-	4e-]	2.d-
4ff	.	4d-	.
4ff	.	4d-	.
=252	=252	=252	=252
4r	2.e-	2.c	2.A
4ff	.	.	.
4ff	.	.	.
=253	=253	=253	=253
4ff	2.d-	2.d-	2.B-
4gg-	.	.	.
4ff	.	.	.
=254	=254	=254	=254
4r	2.a	2.e-	2.c
4ff	.	.	.
4ff	.	.	.
=255	=255	=255	=255
4ff	2.b-	2.f	2.d-
4gg-	.	.	.
4ff	.	.	.
=256	=256	=256	=256
4r	2.e-	2.c	2.A
4ff	.	.	.
4ff	.	.	.
=257	=257	=257	=257
4ff	2.d-	2.d-	2.B-
4gg-	.	.	.
4ff	.	.	.
=258	=258	=258	=258
4r	2.f	2.c	2.A-
4ff	.	.	.
4ff	.	.	.
=259	=259	=259	=259
4ff	2.b	2.d	[2.G
4gg	.	.	.
4ff	.	.	.
=260	=260	=260	=260
4ee-	4cc	4c	2.G_
4dd	4b	4d	.
4ee-	4cc	4c	.
=261	=261	=261	=261
4dd	4b	4g	4G]
4gg	4dd	4b	2r
4gg	4dd	4b	.
=262	=262	=262	=262
2gg	4ee-	4cc	2.r
.	4ff	4dd	.
4ff#	4ee-	4cc	.
=263	=263	=263	=263
2gg	4dd	4b	4r
.	4b	4r	4GG
4bb	4ff	4g	4GG
=264	=264	=264	=264
2ccc	4ee-	2f#	4AA-
.	4r	.	4GG
4ff#	4cc	4c	4AA-
=265	=265	=265	=265
4gg	4b	4d	4GG
2r	4gg	2r	2r
.	4gg	.	.
=266	=266	=266	=266
2.r	8gg	2.r	2.r
.	8ff#	.	.
.	8gg	.	.
.	8ee	.	.
.	8ff	.	.
.	8dd	.	.
=267	=267	=267	=267
4r	[2.cc	4r	4r
4ccc	.	4g	4e
4ccc	.	4g	4e
=268	=268	=268	=268
[2.ccc	4cc]	4g	4e
.	4b	4f	4d
.	4cc	4g	4e
=269	=269	=269	=269
2.ccc_	4cc#	2.a	2.f
.	2dd	.	.
=270	=270	=270	=270
2.ccc_	4ee	4b-	4g
.	4dd#	4a	4f#
.	4ee	4b-	4g
=271	=271	=271	=271
2.ccc_	2gg	2.cc	2.a
.	4ff	.	.
=272	=272	=272	=272
2.ccc_	4bb-	4g	2.e
.	4aa	4f#	.
.	4bb-	4g	.
=273	=273	=273	=273
4ccc]	4aa	4a	2.f
4aa	4ff	4r	.
4ff	4dd	4a	.
=274	=274	=274	=274
4ee	4cc	4g	2g
4ff	4dd	4r	.
4dd	4b	4f	4G
=275	=275	=275	=275
4cc	8c	4e	4c
.	16d	.	.
.	16e	.	.
2r	16f	2r	2r
.	16g	.	.
.	16a	.	.
.	16b	.	.
.	16cc	.	.
.	16dd	.	.
.	16ee	.	.
.	16ff	.	.
=276	=276	=276	=276
2.r	4gg	8E	8C
.	.	16F	16D
.	.	16G	16E
.	2r	16A	16F
.	.	16B	16G
.	.	16c	16A
.	.	16d	16B
.	.	16e	16c
.	.	16f	16d
.	.	16g	16e
.	.	16f	16d
=277	=277	=277	=277
8cc	2.r	4e	4c
16dd	.	.	.
16ee	.	.	.
16ff	.	2r	2r
16gg	.	.	.
16aa	.	.	.
16bb	.	.	.
16ccc	.	.	.
16ddd	.	.	.
16eee	.	.	.
16fff	.	.	.
=278	=278	=278	=278
8ggg	2.cc	2.g	2.E
8eee	.	.	.
8ccc	.	.	.
8gg	.	.	.
8ee	.	.	.
8cc	.	.	.
=279	=279	=279	=279
4a	4a	4c	4F
4aa	2r	2r	2r
4r	.	.	.
=280	=280	=280	=280
8r	4f	2.r	2.r
8gg#	.	.	.
8aa	2r	.	.
8ff#	.	.	.
8gg	.	.	.
8ee	.	.	.
=281	=281	=281	=281
8ff	2.r	2.r	2.r
8cc#	.	.	.
8dd	.	.	.
8ee	.	.	.
8ff	.	.	.
8dd	.	.	.
=282	=282	=282	=282
[2.dd	4r	2.B	4G
.	4f	.	4G
.	4f	.	4G
=283	=283	=283	=283
2.dd]	4f	2.b	4GG
.	4e	.	4GG
.	4f	.	4GG
=284	=284	=284	=284
4cc	4e	4cc	8CC
.	.	.	8EE
2r	2r	2r	8GG
.	.	.	8C
.	.	.	8E
.	.	.	8G
=285	=285	=285	=285
2.g	2B	2.F	8GG
.	.	.	8BB
.	.	.	8D
.	.	.	8F
.	4d	.	8G
.	.	.	8B
=286	=286	=286	=286
4e	4c	8C	4c
.	.	8E	.
2r	2r	8G	2r
.	.	8c	.
.	.	8e	.
.	.	8g	.
=287	=287	=287	=287
2.ff	2.d	8G	2.r
.	.	8B	.
.	.	8d	.
.	.	8f	.
.	.	8g	.
.	.	8b	.
=288	=288	=288	=288
4ee	8c	4cc	2.r
.	8e	.	.
2r	8g	2r	.
.	8cc	.	.
.	8ee	.	.
.	8gg	.	.
=289	=289	=289	=289
2.bb	8ff	2.d	2.GG
.	8dd	.	.
.	8b	.	.
.	8g	.	.
.	8f	.	.
.	8d	.	.
=290	=290	=290	=290
4ccc	4c	4e	4CC
2r	2r	2r	2r
==	==	==	==
*-	*-	*-	*-
!!!RWG1: This file contains only pitch and duration data.
!!!RWG2: Transposing instruments are not transposed.
!!!RWG3: Spines may have incompatible meters.
!!!RWG4: Durations of rests and tied notes may be interpreted.
!!!RWG: Key is interpreted using the Humdrum key tool.
!!!GTL: 6 Quartetti ("Prussian")
!!!AFT: stage1
!!!END: 1997/04/15
!!format changes:
!!content changes:
!!public access: complete
!!!KEY: 1226851463
!!!EMD: Converted from MuseData to Humdrum Dec 16, 2000, by Andreas Kornstaedt using muse2kern.
